X: 1
T: Da Galley Watch
M: 4/4
L: 1/8
R: reel
K: Dmaj
defg afdf|e2ce Aece|defg afdf|[1egfe fddA:|[2egfe fddB
|:ADFD ADDB|ADFD EAAE|DEFG AGFG|[1egfe fddB:|[2egfe fddA||
